X: 30879
T: Out On The Road
R: jig
M: 6/8
K: Dmajor
FAE DFA|dfe d2c|BAd BAF|ABA FAE|
FAE DFA|dfe d2c|BAF AFE|1 EFE DAG:|2 EFE D2B||
Add edB|Adf edB|Add Bdd|BAF AFE|
Add edB|Adf afd|BAF AFE|EFE D2B|
Add edB|Adf edB|Add Bdd|Adf efg|
afd ~f3|edB dcd|BAF AFE|EFE D2E||

